X:160
T: Lasses of Limerick (The)
N: O'Farrell's Pocket Companion v.2 (Sky ed. p.82)
N: "Irish"
M: 6/8
L: 1/8
R: jig
Q: 320
K: Gdor
d|cAG GAG|cAG G2A|cAG GAG|cAG F2d|
cAG GAG|cAG G2A|cAG ded|cAG F2 :|
P:2
d|cAG ded|cAG G2A|cAG ded|cAG F2 :|
P:3
A|g3 f2d|cAG G2d|g2e f2d|cAG F2d|
g2e f2d|gag f2d|g2e fed|cAG F2 :|
P:4
z|B3 BdB|A2A AcA|G2G GAG|cAG G2A|
B3 BdB|A2A AcA|GAG fed|cAG F2 :|
